!!!COM: Anon.
!!!OTL: Cancione de Cuna
!! Maria Cadilla de Martinez,
!! Juegos Y Canciones Infantiles de Puerto Rico
!! Talleres Graficos, Cas Baldrich, Brau 93, San Juan, P.R.
!! 1940.  Derechos reservados de la Autora
!! page 54
!! Andante
**kern
*clefG2
*k[]
*M3/4
{8e
8e
8e
=
4a
8g#},
{8a
8b
8cc
=
4b
2gn},
=
8r
{8e
8f#
8g#
8a
8g#
=
4b
2a},
=
{4g
4.b
8a
=
(8g
8f)
2e},
=
8r
{8b
4.dd
8cc
=
(8b
8a)
2g},
=
8r
{8e
8f#
8g#
8a
8g#
=
4b
2a},
=
{4g
4.b
8a
=
(8g
8f)
2e}
==
*-
